img/cab__balance-icon__02.svg

<svg width="27" height="29" viewBox="0 0 27 29" fill="none" xmlns="http://www.w3.org/2000/svg">
<path d="M22.9947 6.08347C20.9165 4.00533 18.2769 2.69313 15.418 2.28708L16.2547 1.45033C16.5865 1.11852 16.5865 0.580609 16.2547 0.248808C15.9229 -0.082936 15.385 -0.082936 15.0532 0.248808L12.9016 2.40042C12.5698 2.73216 12.5698 3.27013 12.9016 3.60193L15.0531 5.75348C15.219 5.91938 15.4365 6.00236 15.6538 6.00236C15.8712 6.00236 16.0887 5.91938 16.2546 5.75348C16.5864 5.42174 16.5864 4.88377 16.2546 4.55197L15.7753 4.07267C21.1563 5.13412 25.2272 9.88814 25.2272 15.5758C25.2274 22.0409 19.9675 27.3008 13.5023 27.3008C7.03722 27.3008 1.77734 22.0409 1.77734 15.5758C1.77734 13.1088 2.53446 10.749 3.9669 8.75136C5.36961 6.79516 7.30332 5.33548 9.55914 4.53016C10.0011 4.37236 10.2314 3.88627 10.0736 3.4443C9.91586 3.00239 9.42966 2.77209 8.98775 2.92984C6.40477 3.852 4.19108 5.52267 2.58595 7.76117C0.945293 10.0492 0.078125 12.7515 0.078125 15.5759C0.078125 19.1616 1.47449 22.5327 4.01 25.0682C6.54552 27.6036 9.9166 29 13.5023 29C17.0881 29 20.4592 27.6036 22.9947 25.0682C25.5302 22.5326 26.9266 19.1616 26.9266 15.5758C26.9266 11.9901 25.5302 8.61893 22.9947 6.08347Z" fill="black"/>
<path d="M4.77347 15.5757C4.77347 20.389 8.68937 24.3049 13.5027 24.3049C18.316 24.3049 22.2319 20.389 22.2319 15.5757C22.2319 10.7625 18.316 6.84646 13.5027 6.84646C8.68931 6.84646 4.77347 10.7624 4.77347 15.5757ZM13.5027 8.54568C17.3791 8.54568 20.5326 11.6994 20.5326 15.5757C20.5326 19.452 17.379 22.6057 13.5027 22.6057C9.62638 22.6057 6.47268 19.4521 6.47268 15.5757C6.47268 11.6994 9.62632 8.54568 13.5027 8.54568Z" fill="black"/>
<path d="M14.5384 14.733C13.8663 14.4955 13.1239 14.2091 12.7137 13.8874C12.611 13.8069 12.5672 13.6029 12.6071 13.3913C12.628 13.2802 12.7252 12.9094 13.0988 12.7969C13.7563 12.5988 14.2042 12.8593 14.3663 12.9803C14.7423 13.2614 15.2746 13.1845 15.5555 12.8086C15.8365 12.4327 15.7595 11.9004 15.3837 11.6194C15.228 11.503 14.8481 11.2539 14.3045 11.1187V10.8907C14.3045 10.4215 13.9241 10.0411 13.4549 10.0411C12.9857 10.0411 12.6053 10.4215 12.6053 10.8907V11.1711C11.7489 11.4305 11.1099 12.1602 10.9373 13.0766C10.7776 13.9241 11.0564 14.7471 11.6651 15.2244C12.267 15.6965 13.1295 16.0372 13.972 16.335C14.6366 16.5699 14.6562 17.0788 14.6087 17.3612C14.5295 17.8327 14.1328 18.3422 13.4492 18.3467C12.7354 18.3514 12.5324 18.3193 11.9936 17.9668C11.6009 17.7098 11.0744 17.8199 10.8175 18.2127C10.5606 18.6054 10.6707 19.1319 11.0634 19.3888C11.6494 19.7722 12.0885 19.9394 12.6053 20.0063V20.2612C12.6053 20.7304 12.9857 21.1108 13.4549 21.1108C13.9241 21.1108 14.3045 20.7304 14.3045 20.2612V19.9194C14.7048 19.7976 15.0707 19.5896 15.386 19.2999C15.8588 18.8656 16.1778 18.2771 16.2844 17.6429C16.502 16.3485 15.8004 15.1791 14.5384 14.733Z" fill="black"/>
</svg>

<svg width="27" height="29" fill="none" xmlns="http://www.w3.org/2000/svg"><path d="M22.995 6.083a13.323 13.323 0 00-7.577-3.796l.837-.837a.85.85 0 10-1.202-1.2L12.902 2.4a.85.85 0 000 1.202l2.151 2.151a.847.847 0 001.202 0 .85.85 0 000-1.201l-.48-.48c5.381 1.062 9.452 5.816 9.452 11.504 0 6.465-5.26 11.725-11.725 11.725S1.777 22.04 1.777 15.576c0-2.467.757-4.827 2.19-6.825a11.692 11.692 0 015.592-4.22.85.85 0 10-.571-1.601 13.384 13.384 0 00-6.402 4.83 13.332 13.332 0 00-2.508 7.815c0 3.586 1.396 6.957 3.932 9.492A13.337 13.337 0 0013.502 29c3.586 0 6.957-1.396 9.493-3.932a13.337 13.337 0 003.932-9.492 13.34 13.34 0 00-3.932-9.493z" fill="#000"/><path d="M4.773 15.576c0 4.813 3.916 8.729 8.73 8.729 4.813 0 8.729-3.916 8.729-8.73 0-4.813-3.916-8.729-8.73-8.729-4.813 0-8.729 3.916-8.729 8.73zm8.73-7.03a7.038 7.038 0 017.03 7.03 7.038 7.038 0 01-7.03 7.03 7.038 7.038 0 01-7.03-7.03 7.038 7.038 0 017.03-7.03z" fill="#000"/><path d="M14.538 14.733c-.672-.238-1.414-.524-1.824-.846-.103-.08-.147-.284-.107-.496.021-.11.118-.482.492-.594.657-.198 1.105.062 1.267.183a.85.85 0 101.018-1.36 3.091 3.091 0 00-1.08-.501v-.228a.85.85 0 00-1.699 0v.28c-.856.26-1.495.99-1.668 1.906-.16.847.12 1.67.728 2.147.602.473 1.465.813 2.307 1.111.665.235.684.744.637 1.026-.08.472-.476.981-1.16.986-.714.004-.917-.028-1.455-.38a.85.85 0 10-.93 1.422c.585.383 1.024.55 1.541.617v.255a.85.85 0 001.7 0v-.342c.4-.121.766-.33 1.081-.62a2.917 2.917 0 00.898-1.656c.218-1.294-.484-2.464-1.746-2.91z" fill="#000"/></svg>
